48x48/apps/010editor.svg

<svg xmlns="http://www.w3.org/2000/svg" width="48" height="48" version="1">
 <path style="opacity:0.2" d="M 2,12.451897 C 32.106593,3.8717601 36.76404,5.9142264 45.999999,34.53427 22.298537,43.919618 12.182081,43.021179 6.4552345,32.271262 4.5786461,28.7487 4.2597876,23.982174 3.3253706,18.068514 2.9824141,15.89804 2.2436623,14.98541 2,12.451897 Z"/>
 <path style="fill:#fa8900" d="M 2,11.451897 C 32.106593,2.87176 36.76404,4.9142263 45.999999,33.53427 22.298537,42.919618 12.182081,42.021179 6.4552345,31.271262 4.5786461,27.7487 4.2597876,22.982174 3.3253706,17.068514 2.9824141,14.89804 2.2436623,13.98541 2,11.451897 Z"/>
 <path style="opacity:0.2" d="m 7.0078125,13 c -0.5562823,0.01286 -1.0084677,0.225058 -1.34375,0.544922 -0.00104,9.96e-4 -9.122e-4,0.0029 -0.00195,0.0039 -0.2960688,0.283662 -0.4974576,0.651521 -0.59375,1.048828 -8.312e-4,0.0034 -0.00309,0.0063 -0.00391,0.0098 -0.2114255,0.890121 0.1069518,1.912207 1.0996094,2.404297 l 8.0019535,4.146484 0.111328,-0.230469 17.005859,8.572266 5.4375,2.230469 0.01367,-0.03125 L 38.962891,33 43,32.746094 c -1.556637,-1.117769 -2.934711,-2.360193 -5.480469,-2.783203 l 0.01563,-0.0332 -4.75,-3.310547 -16.923828,-8.988282 0.134766,-0.28125 -7.9980471,-4.113281 C 7.6927589,13.073751 7.3515028,12.992139 7.0078125,13 Z"/>
 <path style="fill:#ffeb0e" d="M 9.5823808,13.294216 32.785811,25.619691 31.283151,28.499593 8.1711086,16.850039 C 7.1921072,16.425779 7.1944873,16.436488 7.6191939,15.47678 L 8.3665095,13.788074 C 8.7341693,12.803177 8.7348127,12.84278 9.5823808,13.294216 Z"/>
 <path style="fill:#ffeb0e" d="m 36.641108,28.845456 c 3.135362,0.25337 4.630132,1.659089 6.358893,2.900455 L 38.962412,32 35.815237,30.163044 Z"/>
 <path style="fill:#ffc30e" d="m 7.0086034,12.000522 c -2.1561061,0.04983 -2.7876116,3.048784 -0.844807,4.011889 L 14.166401,20.1575 15.9969,16.350445 7.9976843,12.236321 C 7.6923963,12.073744 7.3522937,11.992661 7.0086034,12.000522 Z"/>
 <path style="opacity:0.1" d="M 5.6640625,13.545591 C 5.3637264,13.832225 5.1599453,14.20468 5.0644531,14.607423 l 8.4179689,4.439844 c 0.696124,0.37794 1.492455,-0.509178 0.507812,-1.109465 z"/>
 <path style="fill:#ffeb0e" d="M 5.6640625,12.545658 C 5.3637264,12.832292 5.1599453,13.204747 5.0644531,13.60749 l 8.4179689,4.439844 c 0.696124,0.37794 1.492455,-0.509178 0.507812,-1.109465 z"/>
 <path style="opacity:0.2;fill:#f4f4f7" d="M 23.685547 7.0078125 C 18.331401 7.1274709 11.40831 8.7698791 2 11.451172 C 2.0338104 11.80272 2.078411 12.119194 2.1289062 12.416016 C 31.785071 3.9743083 36.6796 5.9577077 45.705078 33.648438 C 45.806545 33.60844 45.898031 33.575534 46 33.535156 C 39.650278 13.858876 35.464667 6.7445639 23.685547 7.0078125 z"/>
 <path style="fill:#f4f4f7;opacity:0.2" d="M 7.0078125 12 C 5.5389784 12.033946 4.7801245 13.435679 5.0585938 14.630859 C 5.2535102 13.768849 5.9436554 13.024594 7.0078125 13 C 7.3515028 12.992139 7.6927589 13.073751 7.9980469 13.236328 L 15.996094 17.349609 L 15.861328 17.630859 L 32.376953 26.402344 L 32.785156 25.619141 L 15.861328 16.630859 L 15.996094 16.349609 L 7.9980469 12.236328 C 7.6927589 12.073751 7.3515028 11.992139 7.0078125 12 z M 36.640625 28.845703 L 35.814453 30.162109 L 36.273438 30.429688 L 36.640625 29.845703 C 39.008711 30.037069 40.441963 30.885455 41.746094 31.824219 L 43 31.746094 C 41.271239 30.504728 39.775987 29.099073 36.640625 28.845703 z"/>
 <path style="fill:#17191e" d="m 32.785811,25.619691 4.750017,3.309492 -0.8146,1.800819 -5.438077,-2.230409 z"/>
</svg>

<svg xmlns="http://www.w3.org/2000/svg" width="48" height="48" version="1"><path style="opacity:.2" d="M2 12.452c30.107-8.58 34.764-6.538 44 22.082-23.701 9.386-33.818 8.487-39.545-2.263C4.58 28.75 4.26 23.982 3.325 18.07 2.982 15.898 2.244 14.985 2 12.452z"/><path style="fill:#fa8900" d="M2 11.452c30.107-8.58 34.764-6.538 44 22.082-23.701 9.386-33.818 8.487-39.545-2.263C4.58 27.75 4.26 22.982 3.325 17.07 2.982 14.898 2.244 13.985 2 11.452z"/><path style="opacity:.2" d="M7.008 13a1.972 1.972 0 0 0-1.344.545c-.001 0 0 .003-.002.004a2.15 2.15 0 0 0-.594 1.049c0 .003-.003.006-.004.01-.211.89.107 1.912 1.1 2.404l8.002 4.146.111-.23L31.283 29.5l5.438 2.23.013-.03 2.229 1.3L43 32.746c-1.557-1.118-2.935-2.36-5.48-2.783l.015-.033-4.75-3.31-16.924-8.99.135-.28-7.998-4.114a2.01 2.01 0 0 0-.99-.236z"/><path style="fill:#ffeb0e" d="M9.582 13.294 32.786 25.62l-1.503 2.88L8.171 16.85c-.979-.424-.977-.414-.552-1.373l.748-1.689c.367-.985.368-.945 1.215-.494zM36.641 28.845c3.135.254 4.63 1.66 6.359 2.9L38.962 32l-3.147-1.837z"/><path style="fill:#ffc30e" d="M7.009 12c-2.157.05-2.788 3.05-.845 4.012l8.002 4.145 1.83-3.807-7.998-4.114a2.005 2.005 0 0 0-.99-.235z"/><path style="opacity:.1" d="M5.664 13.546c-.3.286-.504.659-.6 1.061l8.418 4.44c.697.378 1.493-.509.508-1.11z"/><path style="fill:#ffeb0e" d="M5.664 12.546c-.3.286-.504.659-.6 1.061l8.418 4.44c.697.378 1.493-.509.508-1.11z"/><path style="opacity:.2;fill:#f4f4f7" d="M23.686 7.008C18.33 7.128 11.408 8.77 2 11.45c.034.352.078.668.129.965 29.656-8.442 34.55-6.458 43.576 21.232.102-.04.193-.072.295-.113C39.65 13.86 35.465 6.745 23.686 7.008z"/><path style="fill:#f4f4f7;opacity:.2" d="M7.008 12c-1.469.034-2.228 1.436-1.95 2.63.196-.861.886-1.605 1.95-1.63a2.01 2.01 0 0 1 .99.236l7.998 4.114-.135.28 16.516 8.772.408-.783-16.924-8.988.135-.281-7.998-4.114a2.01 2.01 0 0 0-.99-.236zM36.64 28.846l-.827 1.316.46.268.367-.584c2.368.191 3.801 1.04 5.105 1.978L43 31.746c-1.729-1.241-3.224-2.647-6.36-2.9z"/><path style="fill:#17191e" d="m32.786 25.62 4.75 3.31-.815 1.8-5.438-2.23z"/></svg>
